svgs/sharp-regular/pen-field.svg

<svg xmlns="http://www.w3.org/2000/svg" viewBox="0 0 640 512"><!--! Font Awesome Pro 6.6.0 by @fontawesome - https://fontawesome.com License - https://fontawesome.com/license (Commercial License) Copyright 2024 Fonticons, Inc. --><path d="M458 137.9L502.1 182 393.7 290.4l-50.4 6.3 6.3-50.4L458 137.9zM553 199l17-17 36.1-36.1L640 112 606.1 78.1 561.9 33.9 528 0 494.1 33.9 458 70 441 87l-17 17L304 224l-9.9 78.9L288 352l49.1-6.1L416 336 536 216l17-17zm-17-50.9L491.9 104 528 67.9 572.1 112 536 148.1zM24 128L0 128l0 24L0 488l0 24 24 0 528 0 24 0 0-24 0-176 0-24-48 0 0 24 0 152L48 464l0-288 216 0 24 0 0-48-24 0L24 128zM160 288l-64 0 0 64 64 0 0-64zm32 0l0 64 64 0 0-64-64 0z"/></svg>

<svg xmlns="http://www.w3.org/2000/svg" viewBox="0 0 640 512"><!--! Font Awesome Pro 6.4.2 by @fontawesome - https://fontawesome.com License - https://fontawesome.com/license (Commercial License) Copyright 2023 Fonticons, Inc. --><path d="M458 137.9L502.1 182 393.7 290.4l-50.4 6.3 6.3-50.4L458 137.9zM553 199l17-17 36.1-36.1L640 112 606.1 78.1 561.9 33.9 528 0 494.1 33.9 458 70 441 87l-17 17L304 224l-9.9 78.9L288 352l49.1-6.1L416 336 536 216l17-17zm-17-50.9L491.9 104 528 67.9 572.1 112 536 148.1zM24 128H0v24V488v24H24 552h24V488 312 288H528v24V464H48V176H264h24V128H264 24zM160 288H96v64h64V288zm32 0v64h64V288H192z"/></svg>
